!!!COM: Georges Bizet
!!!CNT: Francais
!!!TXO: Francais
!!!OTL: Adieux a\ Suzon
!!!LYR: Alfred de Musset
!!!OPR: Feuilles d'Album
!!!ONM: No. 2
!!!ENC: Jacob Pegg
!!!YOR: Romantic French Song 1830-1870 -David Tunley, ed.,
!!!YOR: New York: Garland Publishing, Inc., 1995, Vol. 4
!!!ODT: 1866/
!!NB: Vocal melody and text only encoded.
!!NB: First instance of melodic material only encoded.
**kern	**silbe
*clef G2	*
*k[f#c#]	*
*M2/4	*
!!created: 5/10/03 19:51
!!proofed and posted: 5/11/03 21:50
!!edit time: 148 min.
=4	=4
4r	.
8.r	.
{16f#	{A-
=5	=5
[4f#	-dieu,
8f#]	|
16r	.
16g	Su-
=6	=6
[4a	-zon,
8a]}	|}
16r	.
{16dd	{a-
=7	=7
8.cc#	-dieu,
16b	ma
8.cc#	ro-
16ee	-se
=8	=8
4dd	blon-
8a}	-de,}
8r	.
=9	=9
{4a	{Qui
8b	m'a
8cc#	ai-
=10	=10
4.dd	-me/
8dd	pen-
=11	=11
(4ff#	-dant
8ee)	|
8b	huit
=12	=12
(2cc#}	jours;}
=13	=13
{4.f#)	{Les
8g	plus
=14	=14
4a	courts
4dd	plai-
=15	=15
(4cc#	-sirs
16ddq	|
16cc#q)	|
8.b	de
16cc#	ce
=16	=16
4dd	mon-
8a}	-de}
8r	.
=17	=17
{4ff#	{Sou-
[8ee	-vent,
16ee]	|
16r	.
=18	=18
4a	font
8.b	les
16dd	meil-
=19	=19
4.cc#	-leurs
8b	a-
=20	=20
[4a	-mours.
8a]}	|}
8r	.
=21	=21
{[8b-	{Sais~
16b-]	~je,
16r	.
8b-	au
8a	mo-
=22	=22
8b-	-ment
8ccn	ou\
8.dd	je
16ee	te
=23	=23
(4.ee	quit-
8ffn)	|
=24	=24
[4a	-te,
8a]}	|}
8r	.
=25	=25
{4g	{Ou\
8f#	m'en-
8g	-trai^-
=26	=26
8a	-ne
8b-	mon
8.ccn	astre
16dd	er-
=27	=27
[2ee	-rant?
=28	=28
(2ee]}	|}
=29	=29
{4.ff#)	{Je
8ee	m'en
=30	=30
4.dd	vais
8f#	pour-
=31	=31
(8.g	-tant,
16f#)	|
8.g	ma
16a	pe-
=32	=32
[4f#	-ti-
16f#]}	-te,}
16r	.
{8a	{Bien
=33	=33
4ee	loin,
8r	.
8cc#	bien
=34	=34
[4dd	vi-
16dd]}	-te,}
16r	.
{8a	{Tou-
=35	=35
(8b	-jours
8cc#)	|
(8dd	cou-
8ee)	|
=36	=36
[2ffn	-rant.
=37	=37
4ffn]}	|}
8r	.
{8dd	{Bien
=38	=38
4ffn	loin,
8r	.
8dd	bien
=39	=39
4ffn	loin,
8r	.
8dd	bien
=40	=40
[2ffn	vi-
=41	=41
8ffn]}	-te,}
8r	.
8.r	.
{16dd	{tou-
=42	=42
(2dd	-jours
=43	=43
4..cc#)	|
16dd	cou-
=44	=44
[2dd	-rant.
=45	=45
4dd]}	|}
4r	.
=49	=49
4r	.
8r	.
{8f#	{Je
=50	=50
4f#	pars,
8r	.
8f#	et
=51	=51
8g#	sur
8a#	ma
8.b	le\vre
16cc#	ar-
=52	=52
4d	-den-
8b}	-te}
8r	.
=53	=53
{[2ff#	{Bru^-
=54	=54
4ff#]	|
8ee	-le en-
8dd	-cor
=55	=55
8cc#	ton
8f#	der-
8.a	-nier
16g#	bai-
=56	=56
[4f#	-ser.
8f#]}	|}
8r	.
=57	=57
{4dd	{En-
8ee	-tre
8dd	mes
=58	=58
(4cc#	bras,
8f#)}	|}
8r	.
=59	=59
{4ff#	{che\re
8.ee	im-
16dd	-pru-
=60	=60
4dd	-den-
8cc#}	-te}
8r	.
=61	=61
{4cc#	{Ton
4dd#	beau
=62	=62
(4ee#	front
16ff#q	|
16ee#q)	|
8dd#	vient
8ee#	se
=63	=63
4.ff#	re-
8b#	-po-
=64	=64
[4cc#	-ser
8cc#]}	|}
8r	.
=65	=65
8r	.
{8cc#	{Sens~
8ddn	~tu
8ee	mon
=66	=66
[4cc#	coeur,
8cc#]}	|}
8r	.
=67	=67
8r	.
{8cc#	{comme
8.dd	il
16ee	pal-
=68	=68
(8.dd	-pi-
16cc#)	|
4cc#}	-te?}
=69	=69
8r	.
{8ff#	{Le
[4ff#	tien,
=70	=70
4ff#]}	|}
8r	.
{8b	{comme
=71	=71
8cc#	il
8dd#	bat-
8.ee	-tait
16ff#	gaie-
=72	=72
[2gg	-ment!
=73	=73
(2gg]	|
=74	=74
2b-)}	|}
!!mm.75-80 repeated material
=80	=80
4r	.
16r	.
16r	.
{8a	{Tou-
=81	=81
4.g#	-jours,
8ffn	t'ai-
=82	=82
[2ee	-mant!
=83	=83
4ee_	|
8ee]}	|}
8r	.
=84	=84
2r	.
=85	=85
{8dd	{Paf!
8r	.
8a	paf!
8r	.
=86	=86
8ff#	paf!
8r	.
8dd	c'est
8f#	mon
=87	=87
8g	che-
[8a	-val
12a]	|
12b	qu'on
12cc#	ap-
=88	=88
[4dd	-pre^-
8dd]}	-te;}
8r	.
=89	=89
{4a	{En-
(8b	-fant,
16cc#)	|
16r	.
=90	=90
4dd	que
(4dd	ne
20eeq	|
20ddq	|
20cc#q	|
20ddq)	|
=91	=91
4ff#	puis~
8.ee	~je en
16b	che-
=92	=92
2cc#}	-min}
=93	=93
{4dd	{Em-
4a	-por-
=94	=94
(4ff#	-ter
4dd)	|
=95	=95
(16cc#q	ta
16ddq	|
8.cc#)	|
16b	mau-
8.cc#	-vai-
16ee	-se
=96	=96
4dd	te^-
8a}	-te}
8r	.
=97	=97
{4ff#	{Qui
4ee	m'a
=98	=98
4a	tout
8b	em-
8dd	-bau-
=99	=99
4.cc#	-me/
8b	la
=100	=100
[4a	main!
8a]}	|}
8r	.
!!101-117 like 21-37
=118	=118
4r	.
{8.ee	{Je
16ff#	m'en
=119	=119
8gg	vais
[4ff#	en
16ff#]	|
16ee	ri-
=120	=120
[2dd	-ant!
=121	=121
4dd]}	|}
4r	.
=126	=126
8r	.
{8a	{Que
8a	de
8g	tris-
=127	=127
8g	-tes-
8fn	-se et
8.g	que
16a	de
=128	=128
4a	char-
4b-}	-mes,}
=129	=129
4r	.
{8bn	{Ten-
8bn	-dre en-
=130	=130
[4ccn	-fant,
8ccn]}	|}
8r	.
=131	=131
{8cc#	{dans
8dd	tes
8.g	doux
16b-	a-
=132	=132
[2a	-dieux!
=133	=133
4a]}	|}
4r	.
=134	=134
2r	.
=135	=135
{4.ee	{Tout
8ffn	m'en-
=136	=136
2ffn	-i-
=137	=137
4ccn}	-vre,}
4r	.
=138	=138
4r	.
{4dd-	{Jus-
=139	=139
4.ccn	-qu'a
8b-	tes
=140	=140
4b-	lar-
8a}	-mes!}
8r	.
=141	=141
{4ccn	{Lors-
8ccn	-que
8ccn	ton
=142	=142
4.b	coeur
8b	est
=143	=143
4.ccn	dans
8ccn	tes
=144	=144
4b}	yeux,}
8r	.
{8b	{A
=145	=145
2dd	vi-
=146	=146
4cc#	-vre
8.g#	ton
16g#	re-
=147	=147
4.dd	-gard
8dd	m'in-
=148	=148
4dd	-vi-
8cc#}	-te;}
8r	.
=149	=149
{4een	{Il
8een	me
8een	con-
=150	=150
4dd#	-so-
4dd#	-le-
=151	=151
4.ff#	-rait
8ff#	mou-
=152	=152
[2ffn	-rant!
=153	=153
2ffn_	|
=154	=154
2ffn]}	|}
!!mm.155-164 like mm. 29-38
=165	=165
{4gg	{Que
8.ff#	no-
16ee	-tre a-
=166	=166
(2b-	-mour,
=167	=167
4ff#)	si
8.ee	tu
16dd	m'ou-
=168	=168
[4f#	-bli-
8f#]}	-es,}
8r	.
=169	=169
8r	.
{8a	{Su-
16b-	-zon,
16r	.
8a	dure
=170	=170
8cc#	en-
8bn	-core
8a	un
8g	mo-
=171	=171
16f#}	-ment;}
16r	.
{8ccn	{Comme
8b	un
8a	bou-
=172	=172
8g#	-quet
8a	de
8.b	fleurs
16a	pa^-
=173	=173
(2aa	-li-
64ff#q	|
=174	=174
64aaq	|
16ee)}	-es,}
16r	.
{8a	{Ah!
8b	ca-
8cc#	-che~
=175	=175
4dd	~le
8.ee	dans
16ffn	ton
=176	=176
4.ff#	sein
8g#	char-
=177	=177
[2a	-mant!
=178	=178
4a]}	|}
8r	.
{8a	{A-
=179	=179
4b-}	-dieu,}
8r	.
8r	.
!!mm. 180-198 repeat material from 21
=199	=199
8r	.
8r	.
8r;	.
{8dd	{Tou-
=200	=200
[2aa	-jours
=201	=201
4.aa;]	|
8cc#	a\
=202	=202
[2dd	toi!
=203	=203
4dd]}	|}
4r	.
*-	*-
